X:1
T:Seek the Savior
T:Seek the Savior
T:Thomas Martin Towne
T:Isabella Electa Kellogg Towne, 1878
T:Public Domain Courtesy of the Cyber Hymnal™
T:Public Domain Courtesy of the Cyber Hymnal™
C:Thomas Martin Towne
Z:Public Domain
Z:Courtesy of the Cyber Hymnal™
%%score ( 1 2 ) ( 3 4 )
L:1/8
Q:1/4=100
M:4/4
K:G
V:1 treble 
V:2 treble 
V:3 bass 
V:4 bass 
V:1
 D | D2 [DG]>[DA] [DB]2 [DA]>[DG] | [Ec]6 [Ec]2 | [DB]2 [DB]>[CA] [B,G]2 [^CA]>[CB] | [DA]6 [CD]2 | %5
w: 1.~Oh,|where is the Hope of the|world? ’Twas|cra- dled in Beth- le- hem’s|stall; Since|
w: 2.~Oh,|where is the Light of the|world? The|Sav- ior doth shine from a-|bove; And|
w: 3.~Oh,|where is the Joy of the|world? ’Tis|cen- tered in Je- sus, our|friend; In|
w: 4.~Oh,|where is the Peace of the|world? ’Tis|found in our mas- ter di-|vine; Most|
w: 5.~Oh,|Hope, cheer- ing Hope of the|world; O|Light, saf- est guide on our|way; Oh,|
 [B,D]2 [DG]>[DA] [DB]2 [DA]>[=FG] | [Ec]6 [Ge]2 | [Fd]2 [FA]>[FB] [Fc]2 [FB]>[FA] | G6 z2 || %9
w: Je- sus came down as a|child, There’s|hope, bless- èd hope for us|all.|
w: makes e’en the night as the|day, He|light- ens our way with His|love.|
w: Him is our well- spring of|joy, The|joy that is nev- er to|end.|
w: pre- cious this to- ken to|man, Oh,|help us, our Sav- ior, be|Thine.|
w: Joy, sweet- est an- gel of|earth; Oh|Peace, be thou ours while we|stay.|
 d3"^Refrain" [DB] [DG]D[DG][GB] | [Fd]2 [Ac]>[GB] [FA]2 z2 | c3 [FA] [DF]D[DF][FA] | %12
w: |||
w: |||
w: Seek the Sav- ior, ear- ly|seek him to- day;|Ere the clouds of sor- row|
w: |||
w: |||
 [Gc]2 [GB]>[DA] [DG]2 z2 | [DB]3 [CA] [B,G][DF][CE][B,D] | [CE]2 [EA]2 [EA]2 [Ac]2 | %15
w: |||
w: |||
w: dark- en thy way;|God is rea- dy to re-|ceive you now, Oh,|
w: |||
w: |||
 [GB] [Gd]3 [FA]3 [FB] | G6 z |] %17
w: ||
w: ||
w: bro- ther come to-|day.|
w: ||
w: ||
V:2
 D | D2 x6 | x8 | x8 | x8 | x8 | x8 | x8 | (G2 E>E D2) x2 || (GGG) x D x3 | x8 | (FFF) x D x3 | %12
 x8 | x8 | x8 | x8 | G6 x |] %17
V:3
 [G,B,] | [G,B,]2 [G,B,]>[G,C] [G,D]2 [G,C]>[G,B,] | ([C,C]2 [C,G,]>[C,G,] [C,G,]2) [C,G,]2 | %3
 [G,,G,]2 [G,,G,]>[D,F,] [E,G,]2 [A,,G,]>[A,,G,] | ([D,F,]2 [D,F,]>[D,F,] [D,F,]2) [D,F,]2 | %5
 G,2 [G,B,]>[G,C] [G,D]2 [G,C]>[G,B,] | ([C,C]2 [C,G,]>[C,G,] [C,G,]2) [C,C]2 | %7
 [D,A,]2 [D,C]>[D,B,] [D,A,]2 [D,D]>[D,C] | (B,2 C>C B,2) z2 || %9
 ([G,B,][G,B,][G,B,])[G,D] [G,B,][G,B,][G,B,][G,D] | [D,D]2 [D,D]>[D,D] [D,D]2 z2 | %11
 ([D,A,][D,A,][D,A,])[D,A,] [D,A,][D,F,][D,A,][D,C] | [G,E]2 [G,D]>[G,C] [G,B,]2 z2 | %13
 G,G,G,G, G,G,G,G, | [C,G,]2 [C,C]2 [C,C]2 [C,E]2 | [D,D] [D,B,]3 [D,C]3 [D,D] | [G,,B,]6 z |] %17
V:4
 x | x8 | x8 | x8 | x8 | G,2 x6 | x8 | x8 | G,,6 x2 || x8 | x8 | x8 | x8 | (G,G,G,)G, G,G,G,G, | %14
 x8 | x8 | x7 |] %17

